src/assets/outline/Unlimited.svg

<svg width="24" height="24" viewBox="0 0 24 24"  xmlns="http://www.w3.org/2000/svg">
<path d="M17.4503 17.2999C15.7703 17.2999 14.2202 16.5099 13.2102 15.1199C12.9702 14.7899 13.0402 14.3199 13.3702 14.0699C13.7002 13.8199 14.1703 13.8999 14.4203 14.2299C15.1503 15.2199 16.2503 15.7899 17.4503 15.7899C19.5403 15.7899 21.2502 14.0899 21.2502 11.9899C21.2502 9.88993 19.5503 8.18994 17.4503 8.18994C16.0303 8.18994 14.6902 8.94991 13.9602 10.1599L11.3102 14.5699C10.3102 16.2399 8.48025 17.27 6.54025 17.27C3.62025 17.27 1.24023 14.8899 1.24023 11.9699C1.24023 9.04991 3.62025 6.66992 6.54025 6.66992C8.22025 6.66992 9.77024 7.45991 10.7802 8.84991C11.0202 9.17991 10.9502 9.64996 10.6202 9.89996C10.2802 10.14 9.82025 10.0699 9.57025 9.73993C8.84025 8.74993 7.74025 8.17993 6.54025 8.17993C4.45025 8.17993 2.74023 9.87992 2.74023 11.9799C2.74023 14.0799 4.44025 15.78 6.54025 15.78C7.96025 15.78 9.30024 15.0199 10.0302 13.8099L12.6802 9.39996C13.6802 7.72996 15.5103 6.69995 17.4503 6.69995C20.3703 6.69995 22.7502 9.07994 22.7502 11.9999C22.7502 14.9199 20.3703 17.2999 17.4503 17.2999Z" />
</svg>

<?xml version="1.0" encoding="UTF-8"?>
<svg width="24" height="24" viewBox="0 0 24 24" xmlns="http://www.w3.org/2000/svg">
 <path d="m17.45 17.3c-1.68 0-3.2301-0.79-4.2401-2.18-0.24-0.33-0.17-0.8 0.16-1.05s0.8001-0.17 1.0501 0.16c0.73 0.99 1.83 1.56 3.03 1.56 2.09 0 3.7999-1.7 3.7999-3.8 0-2.1-1.6999-3.8-3.7999-3.8-1.42 0-2.7601 0.75997-3.4901 1.97l-2.65 4.41c-1 1.67-2.83 2.7001-4.77 2.7001-2.92 0-5.3-2.3801-5.3-5.3001 0-2.92 2.38-5.3 5.3-5.3 1.68 0 3.23 0.78999 4.24 2.18 0.24 0.33 0.17 0.80005-0.16 1.05-0.34 0.24004-0.79995 0.16994-1.05-0.16003-0.73-0.99-1.83-1.56-3.03-1.56-2.09 0-3.8 1.7-3.8 3.8 0 2.1 1.7 3.8001 3.8 3.8001 1.42 0 2.76-0.7601 3.49-1.9701l2.65-4.4099c1-1.67 2.8301-2.7 4.7701-2.7 2.92 0 5.2999 2.38 5.2999 5.3 0 2.92-2.3799 5.3-5.2999 5.3z"/>
</svg>
